!!!!SEGMENT: pl-gd--ee-2628--007-010_stabile-annibale--sacrarum-modulationum-alma-redemptoris.krn
!!!cenid: 15xx:1099
!!!COM: Stabile, Annibale
!!!COM-rismID: pe30009662
!!!CDT: ~1535-1595/04
!!!CNT: Italian
!!!GTL: Sacrarum modulationum
!!!OTL: Alma Redemptoris
!!!OMV: 010
!!!PDT: 1585
!!!AGN:
!!!YEC: Copyright 2022 Narodowy Instytut Fryderyka Chopina (https://polishscores.org)
!!!YEM: License CC-BY-4.0 (https://creativecommons.org/licenses/by/4.0)
!!!SMS-siglum: PL-GD
!!!SMS-shelfmark: Ee 2628
!!!SMS-shelfwork: 007-010 G
!!!SMS-variant:
!!!SMS-altvar:
!!!NIFC-rismSourceID: 1001203361
!!!NIFC-rismChildID: 990060529
!!!NIFC-islandoraID: pl-gd:66139
!!!URL-pdf-islandora: https://repozytorium.nifc.pl/islandora/object/pl-gd%3A66139/datastream/PDF/view
!!!URL-scan: https://polish.musicsources.pl/pl/lokalizacje/galeria/klocki-introligatorskie/673 @EN{Scan on Polish Music Sources Website} @PL{Skany w portalu Dziedzictwo Muzyki Polskiej w otwartym dostępie}
!!!IIIF:
!!!ONB-nifc: UWAGA: Cantus: s. 102-113, Tenore: s. 258-269, Basso: s. 414-425, Quinto: s. 736-747, Sextus: s. 624-632. Dla głosu Alto proszę skorzystać z https://pbc.gda.pl/dlibra/publication/87583/edition/79412/content, s. 25-48. Uwaga: utwory podzielone wg spisu treści dostępnych na końcu ksiąg – proszę sprawdzać sąsiednie tytuły i zwracać uwagę na liczbę głosów. Głosy Quinto i Sextus proszę umieszczać wg ambitusu (może się różnić w zależności od utworu).
!!!AIN: 1 alto 1 bass 1 soprn 1 tenor 1 vox
!!!key: F
**kern	**text	**kern	**text	**kern	**text	**kern	**text	**kern	**text
*part5	*	*part4	*	*part3	*	*part2	*	*part1	*
*staff5	*	*staff4	*	*staff3	*	*staff2	*	*staff1	*
*I"BASSVS	*	*I"QVINTVS	*	*I"TENOR	*	*I"ALTVS	*	*I"CANTVS	*
*I'B	*	*I'V 5	*	*I'T	*	*I'A	*	*I'S	*
*ICvox	*	*ICvox	*	*ICvox	*	*ICvox	*	*ICvox	*
*Ibass	*	*Ivox	*	*Itenor	*	*Ialto	*	*Isoprn	*
*clefF3	*	*clefC4	*	*clefC3	*	*clefC2	*	*clefG2	*
*k[b-]	*	*k[b-]	*	*k[b-]	*	*k[b-]	*	*k[b-]	*
*F:	*	*F:	*	*F:	*	*F:	*	*F:	*
*M2/2	*	*M2/2	*	*M2/2	*	*M2/2	*	*M2/2	*
*met(C|)	*	*met(C|)	*	*met(C|)	*	*met(C|)	*	*met(C|)	*
=1-	=1-	=1-	=1-	=1-	=1-	=1-	=1-	=1-	=1-
!LO:TX:t=P:problem:podwójnie zapisany znak przykluczowy: BB- B-	!	!	!	!	!	!LO:TX:t=P:problem:podwójnie zapisany znak przykluczowy: B- b-	!	!	!
0F	Al-	0c	AL-	0f	AL-	0a	AL-	0cc	AL-
=2-	=2-	=2-	=2-	=2-	=2-	=2-	=2-	=2-	=2-
*	*	*	*	*	*	*lig	*	*	*
1C	-ma	1c	-ma	1e	-ma	1g	-ma	0cc	-ma
=3-	=3-	=3-	=3-	=3-	=3-	=3-	=3-	=3-	=3-
1.F	re-	1.c	re-	2f\	re-	1a	.	.	.
.	.	.	.	2f\	-dem-	.	.	.	.
*	*	*	*	*	*	*Xlig	*	*	*
=4-	=4-	=4-	=4-	=4-	=4-	=4-	=4-	=4-	=4-
*	*	*	*	*lig	*	*	*	*	*
.	.	.	.	1c	-pto-	1.A	re-	1.f	re-
2F/	-dem-	2c\	-dem-	.	.	.	.	.	.
=5-	=5-	=5-	=5-	=5-	=5-	=5-	=5-	=5-	=5-
*lig	*	*lig	*	*	*	*	*	*	*
1D	-pto-	1F	-pto-	1d	.	.	.	.	.
.	.	.	.	.	.	2B-/	-dem-	2f/	-dem-
*	*	*	*	*Xlig	*	*	*	*	*
=6-	=6-	=6-	=6-	=6-	=6-	=6-	=6-	=6-	=6-
1C	.	1G	.	1e	-ris	1.c	-pto-	1cc	-pto-
*Xlig	*	*Xlig	*	*	*	*	*	*	*
=7-	=7-	=7-	=7-	=7-	=7-	=7-	=7-	=7-	=7-
1F	-ris	1A	-ris	1.f	ma-	.	.	1cc	-ris
.	.	.	.	.	.	2c/	-ris	.	.
=8-	=8-	=8-	=8-	=8-	=8-	=8-	=8-	=8-	=8-
*lig	*	*	*	*	*	*	*	*lig	*
0BB-	ma-	1.B-	ma-	.	.	2.d/	ma-	1b-	ma-
.	.	.	.	2e\	.	.	.	.	.
.	.	.	.	.	.	4c/	.	.	.
=9-	=9-	=9-	=9-	=9-	=9-	=9-	=9-	=9-	=9-
.	.	.	.	1d	.	4d/	.	1f	.
.	.	.	.	.	.	4e/	.	.	.
.	.	2A/	.	.	.	1f\	.	.	.
=10-	=10-	=10-	=10-	=10-	=10-	=10-	=10-	=10-	=10-
!	!	!	!	!LO:TX:t=P:problem:kreska pseudotaktowa	!	!	!	!	!
0C	.	0G	.	00c	-ter.	.	.	0cc	.
.	.	.	.	.	.	4e/	.	.	.
.	.	.	.	.	.	4d/	.	.	.
*Xlig	*	*	*	*	*	*	*	*Xlig	*
=11-	=11-	=11-	=11-	=11-	=11-	=11-	=11-	=11-	=11-
.	.	.	.	.	.	1e	.	.	.
=12-	=12-	=12-	=12-	=12-	=12-	=12-	=12-	=12-	=12-
!LO:TX:t=P:problem:kreska pseudotaktowa	!	!LO:TX:t=P:problem:kreska pseudotaktowa	!	!	!	!LO:TX:t=P:problem:kreska pseudotaktowa	!	!LO:TX:t=P:problem:kreska pseudotaktowa	!
00F	-ter.	00F	ter.	.	.	00f	-ter.	00a	-ter.
=13-	=13-	=13-	=13-	=13-	=13-	=13-	=13-	=13-	=13-
.	.	.	.	0r	.	.	.	.	.
=14-	=14-	=14-	=14-	=14-	=14-	=14-	=14-	=14-	=14-
.	.	.	.	.	.	.	.	.	.
=15-	=15-	=15-	=15-	=15-	=15-	=15-	=15-	=15-	=15-
00r	.	00r	.	1ryy	.	2r	.	1cc	Que
.	.	.	.	.	.	1f\	Que	.	.
=16-	=16-	=16-	=16-	=16-	=16-	=16-	=16-	=16-	=16-
.	.	.	.	1ryy	.	.	.	2.dd\	per-
.	.	.	.	.	.	2.g\	per-	.	.
.	.	.	.	.	.	.	.	4dd\	.
=17-	=17-	=17-	=17-	=17-	=17-	=17-	=17-	=17-	=17-
.	.	.	.	1r	.	.	.	2ee\	-via
.	.	.	.	.	.	4g\	.	.	.
.	.	.	.	.	.	2a\	-via	1ff\	c[a]e-
=18-	=18-	=18-	=18-	=18-	=18-	=18-	=18-	=18-	=18-
.	.	.	.	2r	.	2b-\	c[a]e-	.	.
.	.	.	.	1c\	Que	2g\	-li	2ee\	-li
*	*	*	*	*	*	*custos:a	*	*	*
!	!	!	!	!	!	!LO:LB:g=original	!	!	!
=19-	=19-	=19-	=19-	=19-	=19-	=19-	=19-	=19-	=19-
1F	Que	0r	.	.	.	2a\	por-	4ff\	por-
.	.	.	.	.	.	.	.	4ee\	.
.	.	.	.	2.d\	per-	2a\	-ta	4dd\	.
!	!	!	!	!	!	!	!	!b-	!
.	.	.	.	.	.	.	.	4cc\	.
*	*	*	*	*	*	*	*	*custos:b-	*
!	!	!	!	!	!	!	!	!LO:LB:g=original	!
=20-	=20-	=20-	=20-	=20-	=20-	=20-	=20-	=20-	=20-
2.G\	per-	.	.	.	.	1g	ma-	2b-/	.
.	.	.	.	4d\	-via	.	.	.	.
.	.	.	.	2e\	c[a]e-	.	.	2b-/	-ta
4G\	.	.	.	.	.	.	.	.	.
*	*	*	*	*custos:f	*	*	*	*	*
!	!	!	!	!LO:LB:g=original	!	!	!	!	!
=21-	=21-	=21-	=21-	=21-	=21-	=21-	=21-	=21-	=21-
2A\	-via	1F	Que	2.f\	.	1c	-nẽ(n)s	1a	ma-
1c\	c[a]e-	.	.	.	.	.	.	.	.
.	.	.	.	4e\	.	.	.	.	.
=22-	=22-	=22-	=22-	=22-	=22-	=22-	=22-	=22-	=22-
.	.	2.G/	per-	4d\	.	2r	.	1g	-nens
.	.	.	.	4c/	.	.	.	.	.
!LO:N:acc=#	!	!	!	!	!	!	!	!	!
2Bn\	-li	.	.	2d\	.	2g\	que	.	.
.	.	4G/	.	.	.	.	.	.	.
=23-	=23-	=23-	=23-	=23-	=23-	=23-	=23-	=23-	=23-
2c\	por-	2A/	-via	1c	-li	2f\	per-	2r	.
2A\	-ta	1c\	c[a]e-	.	.	2e/	-via	2cc\	Que
*custos:G	*	*	*	*	*	*	*	*	*
!LO:LB:g=original	!	!	!	!	!	!	!	!	!
=24-	=24-	=24-	=24-	=24-	=24-	=24-	=24-	=24-	=24-
1G	ma-	.	.	1r	.	2g\	cæ-	2.dd\	per-
!	!	!LO:N:acc=#	!	!	!	!	!	!	!
.	.	2Bn\	-li	.	.	1g\	-li	.	.
.	.	.	.	.	.	.	.	4dd\	.
*	*	*custos:c	*	*	*	*	*	*	*
!	!	!LO:LB:g=original	!	!	!	!	!	!	!
=25-	=25-	=25-	=25-	=25-	=25-	=25-	=25-	=25-	=25-
2C/	-nens	2c\	por-	0r	.	.	.	2ee\	-via
1c\	por-	2F/	-ta	.	.	2a\	por-	2ff\	cæ-
=26-	=26-	=26-	=26-	=26-	=26-	=26-	=26-	=26-	=26-
*	*	*lig	*	*	*	*	*	*	*
.	.	1G	ma-	.	.	2.g\	.	2ee\	-li
!LO:N:acc=#	!	!	!	!	!	!	!	!	!
2Bn\	-ta	.	.	.	.	.	.	1dd\	por-
.	.	.	.	.	.	4f\	.	.	.
=27-	=27-	=27-	=27-	=27-	=27-	=27-	=27-	=27-	=27-
*lig	*	*	*	*	*	*	*	*	*
1c	ma-	1A	.	1r	.	2e/	.	.	.
.	.	.	.	.	.	2f\	-ta	1cc\	-ta
*	*	*Xlig	*	*	*	*	*	*	*
=28-	=28-	=28-	=28-	=28-	=28-	=28-	=28-	=28-	=28-
1d	.	1G	-nens	2r	.	1g	ma-	.	.
!	!	!	!	!	!	!	!	!LO:N:acc=#	!
.	.	.	.	2g\	et	.	.	2bn/	ma-
!	!	!	!	!	!	!	!	!LO:N:acc=#	!
*Xlig	*	*	*	*	*	*	*	*	*
=29-	=29-	=29-	=29-	=29-	=29-	=29-	=29-	=29-	=29-
1c	-nens	00r	.	2g\	-ſtel-	1e	-nens	0cc	-nens
.	.	.	.	2g\	-la	.	.	.	.
=30-	=30-	=30-	=30-	=30-	=30-	=30-	=30-	=30-	=30-
*	*	*	*	*lig	*	*	*	*	*
0r	.	.	.	1f	ma-	2r	.	.	.
.	.	.	.	.	.	2cc\	et	.	.
=31-	=31-	=31-	=31-	=31-	=31-	=31-	=31-	=31-	=31-
.	.	.	.	3%2e	.	2cc\	-ſtel-	2r	.
.	.	.	.	.	.	2cc\	-la	2gg\	Et
*	*	*	*	*Xlig	*	*	*	*	*
.	.	.	.	3f\	.	.	.	.	.
=32-	=32-	=32-	=32-	=32-	=32-	=32-	=32-	=32-	=32-
1r	.	.	.	2.g\	.	2.b-\	ma-	2gg\	-ſtel-
.	.	.	.	.	.	.	.	2gg\	-la
.	.	.	.	8f\	.	8a\	.	.	.
.	.	.	.	8e\	.	8g\	.	.	.
*	*	*	*	*	*	*	*	*custos:ff	*
!	!	!	!	!	!	!	!	!LO:LB:g=original	!
=33-	=33-	=33-	=33-	=33-	=33-	=33-	=33-	=33-	=33-
1r	.	00r	.	1d	.	2a\	.	2.ff\	ma-
!	!	!	!	!	!	!LO:N:acc=#	!	!	!
.	.	.	.	.	.	2bn\	.	.	.
.	.	.	.	.	.	.	.	8ee\	.
.	.	.	.	.	.	.	.	8dd\	.
=34-	=34-	=34-	=34-	=34-	=34-	=34-	=34-	=34-	=34-
2r	.	.	.	1c	-ris	2.cc\	.	0ee	.
2c\	Et	.	.	.	.	.	.	.	.
.	.	.	.	.	.	8b-y\	.	.	.
.	.	.	.	.	.	8a\	.	.	.
=35-	=35-	=35-	=35-	=35-	=35-	=35-	=35-	=35-	=35-
2c\	-ſtel-	.	.	2r	.	1g	.	.	.
*	*	*	*	*	*ij	*	*	*	*
2c\	-la	.	.	2g\	et	.	.	.	.
*	*	*	*	*custos:g	*	*	*	*	*
!	!	!	!	!LO:LB:g=original	!	!	!	!	!
=36-	=36-	=36-	=36-	=36-	=36-	=36-	=36-	=36-	=36-
*lig	*	*	*	*	*	*	*	*	*
1B-y	ma-	.	.	2g\	-ſtel-	1G	-ris	1dd	-ris
.	.	.	.	2g\	-la	.	.	.	.
=37-	=37-	=37-	=37-	=37-	=37-	=37-	=37-	=37-	=37-
3%2B-	.	2r	.	2f\	ma-	1r	.	00r	.
.	.	2c\	et	2.e\	.	.	.	.	.
*Xlig	*	*	*	*	*	*	*	*	*
6G\	.	.	.	.	.	.	.	.	.
6F\	.	.	.	.	.	.	.	.	.
*	*	*	*	*	*	*custos:g	*	*	*
!	!	!	!	!	!	!LO:LB:g=original	!	!	!
=38-	=38-	=38-	=38-	=38-	=38-	=38-	=38-	=38-	=38-
2E/	.	2c\	-ſtel-	.	.	2r	.	.	.
.	.	.	.	4d\	.	.	.	.	.
2C/	.	2c\	-la	4e\	.	2g\	Et	.	.
.	.	.	.	4c/	.	.	.	.	.
=39-	=39-	=39-	=39-	=39-	=39-	=39-	=39-	=39-	=39-
2.G\	.	2.B-y\	ma-	1d	.	2g\	-ſtel-	.	.
.	.	.	.	.	.	2g\	-la	.	.
8F/	.	8A/	.	.	.	.	.	.	.
8E/	.	8G/	.	.	.	.	.	.	.
*custos:D	*	*	*	*	*	*	*	*	*ij
!LO:LB:g=original	!	!	!	!	!	!	!	!	!
=40-	=40-	=40-	=40-	=40-	=40-	=40-	=40-	=40-	=40-
1D	.	2A/	.	1d	-ris	2.f\	ma-	.	.
!	!	!LO:N:acc=#	!	!	!	!	!	!	!
.	.	2Bn\	.	.	.	.	.	.	.
.	.	.	.	.	.	8e/	.	.	.
.	.	.	.	.	.	8d/	.	.	.
*	*	*	*	*	*Xij	*	*	*	*
=41-	=41-	=41-	=41-	=41-	=41-	=41-	=41-	=41-	=41-
1C	ris	2.c\	.	2r	.	4e/	.	2r	.
.	.	.	.	.	.	4f\	.	.	.
.	.	.	.	1e\	Et	2g\	.	2cc\	Et
.	.	4B-y\	.	.	.	.	.	.	.
=42-	=42-	=42-	=42-	=42-	=42-	=42-	=42-	=42-	=42-
1r	.	4A/	.	.	.	2a\	-ris	2cc\	-ſtel-
.	.	4G/	.	.	.	.	.	.	.
.	.	4F/	.	1f\	-ſtel-	1a\	-ſtel-	2cc\	-la
.	.	4E/	.	.	.	.	.	.	.
*	*	*custos:D	*	*	*	*	*	*	*
!	!	!LO:LB:g=original	!	!	!	!	!	!	!
=43-	=43-	=43-	=43-	=43-	=43-	=43-	=43-	=43-	=43-
0r	.	2D/	.	.	.	.	.	1.b-y	ma-
.	.	2E/	.	2e\	-la	2g\	-la	.	.
=44-	=44-	=44-	=44-	=44-	=44-	=44-	=44-	=44-	=44-
*	*	*lig	*	*	*	*	*	*	*
.	.	1F	.	2d\	ma-	2.f\	ma-	.	.
.	.	.	.	2.c/	.	.	.	2a/	.
.	.	.	.	.	.	4e/	.	.	.
=45-	=45-	=45-	=45-	=45-	=45-	=45-	=45-	=45-	=45-
1r	.	1G	.	.	.	4d/	.	0g	-ris
!	!	!	!	!LO:N:acc=#	!	!	!	!	!
.	.	.	.	4Bn/	.	4c/	.	.	.
.	.	.	.	2B/	.	2d/	.	.	.
*	*	*Xlig	*	*	*	*	*	*	*Xij
=46-	=46-	=46-	=46-	=46-	=46-	=46-	=46-	=46-	=46-
2r	.	1C	-ris	0c	-ris	2e/	-ris	.	.
2C/	Suc-	.	.	.	.	2g\	Suc-	.	.
=47-	=47-	=47-	=47-	=47-	=47-	=47-	=47-	=47-	=47-
2F/	-cur-	2r	.	.	.	2a\	-cur-	0r	.
4E/	-re	2G/	Suc-	.	.	4g\	-re	.	.
4C/	ca-	.	.	.	.	4e/	ca-	.	.
=48-	=48-	=48-	=48-	=48-	=48-	=48-	=48-	=48-	=48-
2F/	-den-	2A/	-cur-	2r	.	2f\	-den-	.	.
2C/	-ti	4G/	-re	2g\	Suc-	2e/	-ti	.	.
.	.	4E/	ca-	.	.	.	.	.	.
=49-	=49-	=49-	=49-	=49-	=49-	=49-	=49-	=49-	=49-
2r	.	2F/	-den-	2a\	-cur-	1r	.	2r	.
*	*ij	*	*	*	*	*	*	*	*
2c\	Suc-	2C/	-ti	4g\	-re	.	.	2cc\	Suc-
.	.	.	.	4e\	ca-	.	.	.	.
=50-	=50-	=50-	=50-	=50-	=50-	=50-	=50-	=50-	=50-
2d\	-cur-	2r	.	2f\	-den-	2r	.	2a/	-cur-
*	*	*	*ij	*	*	*	*ij	*	*
4c\	-re	2c\	Su-	2e\	-ti	2cc\	Su-	4a/	-re
4A\	ca-	.	.	.	.	.	.	4a/	ca-
=51-	=51-	=51-	=51-	=51-	=51-	=51-	=51-	=51-	=51-
2B-\	-den-	2d\	-cur-	2r	.	2b-\	-cur-	2f/	-den-
*	*	*	*	*	*ij	*	*	*	*
2F/	-ti	4c\	-re	2f\	Suc-	2a\	-re	4f/	-ti
*	*Xij	*	*	*	*	*	*	*	*ij
.	.	4A/	ca-	.	.	.	.	4cc\	Suc-
=52-	=52-	=52-	=52-	=52-	=52-	=52-	=52-	=52-	=52-
1r	.	2B-\	-den-	2d\	-cur-	4.f\	ca-	2dd\	-cur-
.	.	.	.	.	.	8g\	.	.	.
*	*	*	*	*	*	*custos:a	*	*	*
!	!	!	!	!	!	!LO:LB:g=original	!	!	!
.	.	2F/	-ti	4f\	-re	4a\	.	4dd\	-re
.	.	.	.	4F/	ca-	2f\	-den-	4a/	ca-
*	*	*	*Xij	*custos:G	*	*	*	*	*
!	!	!	!	!LO:LB:g=original	!	!	!	!	!
=53-	=53-	=53-	=53-	=53-	=53-	=53-	=53-	=53-	=53-
0r	.	0r	.	2G/	-den-	.	.	2b-/	-den-
.	.	.	.	.	.	4e/	.	.	.
.	.	.	.	2F/	-ti	2f\	-ti	2a/	-ti
*	*	*	*	*	*Xij	*	*Xij	*	*Xij
=54-	=54-	=54-	=54-	=54-	=54-	=54-	=54-	=54-	=54-
.	.	.	.	1r	.	1r	.	1r	.
*	*	*	*	*	*	*	*	*custos:cc	*
!	!	!	!	!	!	!	!	!LO:LB:g=original	!
=55-	=55-	=55-	=55-	=55-	=55-	=55-	=55-	=55-	=55-
*M3/2	*	*M3/2	*	*M3/2	*	*M3/2	*	*M3/2	*
*met(O|3/2)	*	*met(O|3/2)	*	*met(O|3/2)	*	*met(O|3/2)	*	*met(O|3/2)	*
!	!	!LO:N:vis=0	!	!	!	!	!	!	!
1.F	Sur-	0.r	.	1.f	Sur-	1.a	Sur-	1.cc	Sur-
=56-	=56-	=56-	=56-	=56-	=56-	=56-	=56-	=56-	=56-
2F/	-ge-	.	.	2f\	-ge-	2a\	-ge-	2cc\	-ge-
1F	-re	.	.	1f	-re	1a	-re	1cc	-re
=57-	=57-	=57-	=57-	=57-	=57-	=57-	=57-	=57-	=57-
*	*ij	*	*	*	*ij	*	*ij	*	*ij
1.C	Sur-	1.c	Sur-	1.e	Sur-	1.g	Sur-	1.cc	Sur-
=58-	=58-	=58-	=58-	=58-	=58-	=58-	=58-	=58-	=58-
2C/	-ge-	2c\	-ge-	2e\	-ge-	2g\	-ge-	2cc\	-ge-
1C	-re	1c	-re	1e	-re	1g	-re	1cc	-re
*	*Xij	*	*	*	*Xij	*	*Xij	*	*Xij
=59-	=59-	=59-	=59-	=59-	=59-	=59-	=59-	=59-	=59-
00r	.	1A	qui	1f	qui	1a	qui	1cc	qui
.	.	1c\	cu-	1d\	cu-	1g\	cu-	1dd\	cu-
=60-	=60-	=60-	=60-	=60-	=60-	=60-	=60-	=60-	=60-
.	.	.	.	.	.	.	.	.	.
.	.	1c	-rat	1e	-rat	1a	-rat	1cc	-rat
*	*	*custos:d	*	*	*	*	*	*	*
!	!	!LO:LB:g=original	!	!	!	!	!	!	!
=61-	=61-	=61-	=61-	=61-	=61-	=61-	=61-	=61-	=61-
*	*	*	*	*	*	*lig	*	*	*
.	.	0d	po-	0f	po-	1a	po-	0a	po-
0r	.	.	.	.	.	1f\	.	.	.
*	*	*	*	*	*	*Xlig	*	*	*
=62-	=62-	=62-	=62-	=62-	=62-	=62-	=62-	=62-	=62-
.	.	.	.	.	.	.	.	.	.
!	!	!	!	!	!	!	!	!LO:N:acc=#	!
.	.	1d	-pu-	1f	-pu-	1d	pu-	1bn	-pu-
=63-	=63-	=63-	=63-	=63-	=63-	=63-	=63-	=63-	=63-
1.ryy	.	0.c	-lo	0.e	-lo	0.g	-lo	0.cc	-lo
=64-	=64-	=64-	=64-	=64-	=64-	=64-	=64-	=64-	=64-
1.ryy	.	.	.	.	.	.	.	.	.
*custos:C	*	*	*	*	*	*	*	*	*
!LO:LB:g=original	!	!	!	!	!	!	!	!	!
=65-	=65-	=65-	=65-	=65-	=65-	=65-	=65-	=65-	=65-
1.C	Sur-	1.G	Sur-	1.c	Sur-	1.g	Sur-	1.ee	Sur-
=66-	=66-	=66-	=66-	=66-	=66-	=66-	=66-	=66-	=66-
2C/	-ge-	2G/	-ge-	2c/	-ge-	2g\	-ge-	2ee\	-ge-
1C	-re	1G	-re	1c	-re	1g	-re	1ee	-re
=67-	=67-	=67-	=67-	=67-	=67-	=67-	=67-	=67-	=67-
*	*ij	*	*ij	*	*ij	*	*ij	*	*ij
1.F	Sur-	1.A	Sur-	1.c	Sur-	1.f	Sur-	1.ff	Sur-
=68-	=68-	=68-	=68-	=68-	=68-	=68-	=68-	=68-	=68-
2F/	-ge-	2A/	-ge-	2c/	-ge-	2f\	-ge-	2ff\	-ge-
1F	-re	1A	-re	1c	-re	1f	-re	1ff	-re
*	*Xij	*	*Xij	*	*Xij	*	*Xij	*	*Xij
=69-	=69-	=69-	=69-	=69-	=69-	=69-	=69-	=69-	=69-
1D	qui	1A	qui	1d	qui	1f	qui	1ff	qui
1BB-/	cu-	1B-\	cu-	1d\	cu-	1f\	cu-	1dd\	cu-
=70-	=70-	=70-	=70-	=70-	=70-	=70-	=70-	=70-	=70-
1F	-rat	1F	-rat	1A	-rat	1f	-rat	1cc	-rat
=71-	=71-	=71-	=71-	=71-	=71-	=71-	=71-	=71-	=71-
0C	po-	0G	po-	0c	po-	0e	po-	0cc	po-
=72-	=72-	=72-	=72-	=72-	=72-	=72-	=72-	=72-	=72-
1C	-pu-	1G	-pu-	1c	-pu-	1e	-pu-	1cc	-pu-
*	*	*	*	*custos:c	*	*custos:f	*	*	*
!	!	!	!	!LO:LB:g=original	!	!LO:LB:g=original	!	!	!
=73-	=73-	=73-	=73-	=73-	=73-	=73-	=73-	=73-	=73-
*M2/2	*	*M2/2	*	*M2/2	*	*M2/2	*	*M2/2	*
*met(C|)	*	*met(C|)	*	*met(C|)	*	*met(C|)	*	*met(C|)	*
2F/	-lo	1F	-lo	0.c	-lo	2f\	-lo	1a	-lo
2F/	Tu	.	.	.	.	2a\	Tu	.	.
=74-	=74-	=74-	=74-	=74-	=74-	=74-	=74-	=74-	=74-
2E/	que	1r	.	.	.	2g\	que	1r	.
1F\	ge-	.	.	.	.	1a\	ge-	.	.
*	*	*	*	*	*	*	*	*custos:ff	*
!	!	!	!	!	!	!	!	!LO:LB:g=original	!
=75-	=75-	=75-	=75-	=75-	=75-	=75-	=75-	=75-	=75-
.	.	1r	.	.	.	.	.	1r	.
2E/	-nui-	.	.	.	.	2g\	-nu-	.	.
=76-	=76-	=76-	=76-	=76-	=76-	=76-	=76-	=76-	=76-
4D/	.	1d	Tu	1r	.	0.a	-i-	1ff	Tu
4E/	.	.	.	.	.	.	.	.	.
4F/	.	.	.	.	.	.	.	.	.
4G\	.	.	.	.	.	.	.	.	.
=77-	=77-	=77-	=77-	=77-	=77-	=77-	=77-	=77-	=77-
2A\	.	2c#X\	que	0r	.	.	.	2ee\	que
2D/	.	1d\	ge-	.	.	.	.	1ff\	ge
=78-	=78-	=78-	=78-	=78-	=78-	=78-	=78-	=78-	=78-
1A	-ſti	.	.	.	.	.	.	.	.
.	.	2cny\	-nu-	.	.	.	.	2ee\	nu-
=79-	=79-	=79-	=79-	=79-	=79-	=79-	=79-	=79-	=79-
2r	.	1B-	-i-	2r	.	1d	-ſti	2.dd\	-i-
*	*ij	*	*	*	*	*	*	*	*
2B-\	Tu	.	.	2d\	Tu	.	.	.	.
.	.	.	.	.	.	.	.	4ee\	.
=80-	=80-	=80-	=80-	=80-	=80-	=80-	=80-	=80-	=80-
2A\	que	0F	-ſti	2c/	que	1r	.	0ff	.
1B-\	ge-	.	.	1d\	ge-	.	.	.	.
=81-	=81-	=81-	=81-	=81-	=81-	=81-	=81-	=81-	=81-
.	.	.	.	.	.	1r	.	.	.
2A\	-nu-	.	.	2c/	-nu-	.	.	.	.
*custos:G	*	*	*	*	*	*	*	*	*
!LO:LB:g=original	!	!	!	!	!	!	!	!	!
=82-	=82-	=82-	=82-	=82-	=82-	=82-	=82-	=82-	=82-
!	!	!	!	!LO:N:acc=#	!	!	!	!	!
*	*	*	*	*	*	*	*	*lig	*
1G	-i-	1r	.	1Bn	-i-	2r	.	1dd	-ſti
.	.	.	.	.	.	2g\	Na-	.	.
=83-	=83-	=83-	=83-	=83-	=83-	=83-	=83-	=83-	=83-
0C	-ſti	2r	.	2c/	-ſti	1g	-tu-	1cc	.
.	.	2c\	Na-	2e\	Na-	.	.	.	.
*	*Xij	*	*	*	*	*	*	*Xlig	*
=84-	=84-	=84-	=84-	=84-	=84-	=84-	=84-	=84-	=84-
.	.	1c	-tu-	4g\	-tu-	2e/	-ra	2r	.
.	.	.	.	4f\	.	.	.	.	.
.	.	.	.	4e\	.	2g\	mi-	2cc\	Na-
.	.	.	.	4d\	.	.	.	.	.
*	*	*custos:A	*	*	*	*	*	*	*
!	!	!LO:LB:g=original	!	!	!	!	!	!	!
=85-	=85-	=85-	=85-	=85-	=85-	=85-	=85-	=85-	=85-
0r	.	2A/	-ra	2c/	.	4a\	-ran-	2cc\	-tu-
.	.	.	.	.	.	4g\	.	.	.
.	.	2B-\	mi-	1d\	ra	4f\	.	1b-y\	-ra
.	.	.	.	.	.	4e/	.	.	.
=86-	=86-	=86-	=86-	=86-	=86-	=86-	=86-	=86-	=86-
.	.	1F	-ran-	.	.	2.f\	.	.	.
.	.	.	.	1c\	mi-	.	.	2a/	mi-
.	.	.	.	.	.	4e/	.	.	.
=87-	=87-	=87-	=87-	=87-	=87-	=87-	=87-	=87-	=87-
2r	.	1G	-te	.	.	1d	te	1g	-ran-
!	!	!	!	!LO:N:acc=#	!	!	!	!	!
2G\	Na-	.	.	4Bn/	.	.	.	.	.
.	.	.	.	4A/	.	.	.	.	.
=88-	=88-	=88-	=88-	=88-	=88-	=88-	=88-	=88-	=88-
*	*	*	*	*lig	*	*	*	*	*
!	!	!	!	!LO:N:acc=#	!	!	!	!	!
1G	-tu-	1r	.	1Bn	.	2d/	Na-	2g/	-te
*	*	*	*	*	*	*	*	*	*ij
.	.	.	.	.	.	2d/	-tu-	2gg\	Na-
=89-	=89-	=89-	=89-	=89-	=89-	=89-	=89-	=89-	=89-
2E/	-ra	00r	.	1c	.	2e/	-ra	2gg\	-tu-
2F/	mi-	.	.	.	.	1a\	mi-	1ff\	-ra
*	*	*	*	*Xlig	*	*	*	*	*
=90-	=90-	=90-	=90-	=90-	=90-	=90-	=90-	=90-	=90-
1C	-ran-	.	.	2.c/	-ran-	.	.	.	.
.	.	.	.	.	.	1g\	-ran-	2ee\	mi-
.	.	.	.	4B-y/	.	.	.	.	.
=91-	=91-	=91-	=91-	=91-	=91-	=91-	=91-	=91-	=91-
0D	-te	.	.	0A	.	.	.	0dd	-ran-
.	.	.	.	.	.	4f#X\	.	.	.
.	.	.	.	.	.	4e/	.	.	.
=92-	=92-	=92-	=92-	=92-	=92-	=92-	=92-	=92-	=92-
.	.	.	.	.	.	1f#X	.	.	.
*	*	*	*	*	*	*custos:g	*	*	*
!	!	!	!	!	!	!LO:LB:g=original	!	!	!
=93-	=93-	=93-	=93-	=93-	=93-	=93-	=93-	=93-	=93-
00r	.	2r	.	2G/	-te	2g\	-te	2dd\	-te
*	*	*	*	*	*	*	*	*	*Xij
!	!	!	!	!	!	!LO:N:acc=#	!	!	!
.	.	1G/	Tu-	1g\	Tu-	1bn\	Tu-	1dd\	Tu-
=94-	=94-	=94-	=94-	=94-	=94-	=94-	=94-	=94-	=94-
.	.	.	.	.	.	.	.	.	.
.	.	2F/	-um	2a\	-um	2cc\	-um	2ff\	-um
*	*	*	*	*custos:g	*	*	*	*	*
!	!	!	!	!LO:LB:g=original	!	!	!	!	!
=95-	=95-	=95-	=95-	=95-	=95-	=95-	=95-	=95-	=95-
.	.	1c	ſan-	1g	ſan-	1cc	ſan-	1ee	ſan-
=96-	=96-	=96-	=96-	=96-	=96-	=96-	=96-	=96-	=96-
.	.	2d\	-ctum	2f#X\	-ctum	2a\	-ctũ(m)	2dd\	-ctum
.	.	1G/	ge-	1g\	ge	1b-y\	ge-	2dd\	ge-
=97-	=97-	=97-	=97-	=97-	=97-	=97-	=97-	=97-	=97-
00r	.	.	.	.	.	.	.	2ee\	-ni-
*	*	*	*	*	*	*	*	*custos:ff	*
!	!	!	!	!	!	!	!	!LO:LB:g=original	!
.	.	2A/	-ni-	2c/	ni-	2a\	-ni-	2.ff\	-to-
=98-	=98-	=98-	=98-	=98-	=98-	=98-	=98-	=98-	=98-
.	.	2.B-\	-to-	4d\	-to-	1fny	-to-	.	.
.	.	.	.	4e\	.	.	.	4ee\	.
.	.	.	.	2.fny\	.	.	.	4dd\	.
.	.	4A/	.	.	.	.	.	4cc\	.
=99-	=99-	=99-	=99-	=99-	=99-	=99-	=99-	=99-	=99-
.	.	1G	.	.	.	1g	-rẽ(m)	1b-	.
.	.	.	.	8e\	.	.	.	.	.
.	.	.	.	8d\	.	.	.	.	.
.	.	.	.	2e\	.	.	.	.	.
=100-	=100-	=100-	=100-	=100-	=100-	=100-	=100-	=100-	=100-
.	.	0F	-rem	1f	-rem	1cc	Vir-	2a/	-rẽ(m)
.	.	.	.	.	.	.	.	1cc\	Vir-
=101-	=101-	=101-	=101-	=101-	=101-	=101-	=101-	=101-	=101-
00r	.	.	.	2r	.	2a\	-go	.	.
.	.	.	.	2f\	Vir-	2.cc\	pri-	2a/	-go
=102-	=102-	=102-	=102-	=102-	=102-	=102-	=102-	=102-	=102-
.	.	1r	.	2e\	-go	.	.	2.cc\	pri-
.	.	.	.	.	.	4b-\	.	.	.
.	.	.	.	2.f\	pri-	4a\	.	.	.
.	.	.	.	.	.	4g\	.	4b-/	.
=103-	=103-	=103-	=103-	=103-	=103-	=103-	=103-	=103-	=103-
.	.	0r	.	.	.	0f	.	4a/	.
.	.	.	.	4e\	.	.	.	4g/	.
.	.	.	.	4d\	.	.	.	2.a/	.
.	.	.	.	4c/	.	.	.	.	.
=104-	=104-	=104-	=104-	=104-	=104-	=104-	=104-	=104-	=104-
.	.	.	.	4d\	.	.	.	.	.
.	.	.	.	4e\	.	.	.	4g/	.
.	.	.	.	2.f\	.	.	.	4a/	.
.	.	.	.	.	.	.	.	4b-/	.
=105-	=105-	=105-	=105-	=105-	=105-	=105-	=105-	=105-	=105-
*	*	*	*	*	*	*lig	*	*	*
1c	Vir-	1r	.	.	.	1g	-us	1cc	.
.	.	.	.	4e\	.	.	.	.	.
.	.	.	.	2e\	.	.	.	.	.
=106-	=106-	=106-	=106-	=106-	=106-	=106-	=106-	=106-	=106-
2A\	-go	1c	Vir-	2f\	-us	1a	.	1cc	-us
*	*	*	*	*	*ij	*	*	*	*
2.c\	pri-	.	.	2.F/	Vir-	.	.	.	.
*	*	*	*	*	*	*Xlig	*IJ	*	*
=107-	=107-	=107-	=107-	=107-	=107-	=107-	=107-	=107-	=107-
.	.	2A/	-go	.	.	2.cc\	Vir-	2r	.
4B-\	.	.	.	4G/	-go	.	.	.	.
4A\	.	2.c\	pri-	4A/	pri-	.	.	2.f/	Vir-
4G\	.	.	.	4B-/	.	4b-\	-go	.	.
=108-	=108-	=108-	=108-	=108-	=108-	=108-	=108-	=108-	=108-
1.F	.	.	.	2c/	.	4a\	.	.	.
.	.	4B-\	.	.	.	4g\	.	4g/	.
.	.	4A/	.	2c/	.	4f\	.	4a/	.
.	.	4G/	.	.	.	4g\	.	4b-/	.
=109-	=109-	=109-	=109-	=109-	=109-	=109-	=109-	=109-	=109-
.	.	2F/	.	1c	.	2a\	pri-	2cc\	.
2E/	.	2G/	.	.	.	2g\	.	2cc\	-go
*	*	*	*	*custos:c	*	*	*	*	*
!	!	!	!	!LO:LB:g=original	!	!	!	!	!
=110-	=110-	=110-	=110-	=110-	=110-	=110-	=110-	=110-	=110-
1F	.	1A	.	2c/	us	1f	.	1cc	pri-
*	*	*	*	*	*Xij	*	*	*	*
.	.	.	.	2.c/	ac	.	.	.	.
=111-	=111-	=111-	=111-	=111-	=111-	=111-	=111-	=111-	=111-
1C	-us	2G/	-us	.	.	2e/	-us	1cc	-us
.	.	.	.	4d\	.	.	.	.	.
*	*	*custos:c	*	*	*	*	*xIJ	*	*
!	!	!LO:LB:g=original	!	!	!	!	!	!	!
.	.	2.c\	ac	4e\	.	2g\	-ac	.	.
.	.	.	.	4f\	.	.	.	.	.
=112-	=112-	=112-	=112-	=112-	=112-	=112-	=112-	=112-	=112-
2r	.	.	.	2g\	.	1e	po-	2r	.
.	.	4B-\	.	.	.	.	.	.	.
1c\	ac	4A/	.	1a\	po-	.	.	2cc\	ac
.	.	4G/	.	.	.	.	.	.	.
=113-	=113-	=113-	=113-	=113-	=113-	=113-	=113-	=113-	=113-
.	.	2F/	.	.	.	2f\	-ſte-	2a/	po-
2c\	po-	2E/	po-	2g\	-ſte-	4g\	.	1cc\	-ſte-
.	.	.	.	.	.	4e/	.	.	.
*	*	*	*	*	*	*custos:a	*	*	*
!	!	!	!	!	!	!LO:LB:g=original	!	!	!
=114-	=114-	=114-	=114-	=114-	=114-	=114-	=114-	=114-	=114-
2.d\	-ſte-	2F/	-ſte-	2f\	-ri-	2a\	.	.	.
!	!	!	!	!	!	!	!	!LO:N:acc=#	!
.	.	2G/	-ri-	2d\	-us	2g\	-ri-	2bn/	-ri-
4d\	ri-	.	.	.	.	.	.	.	.
*	*	*	*	*	*	*	*	*custos:cc	*
!	!	!	!	!	!	!	!	!LO:LB:g=original	!
=115-	=115-	=115-	=115-	=115-	=115-	=115-	=115-	=115-	=115-
2c\	-us	1C	-us	2.e\	.	1g	-us	2.cc\	-us
*custos:c	*ij	*	*	*	*	*	*ij	*	*ij
!LO:LB:g=original	!	!	!	!	!	!	!	!	!
2.c\	ac	.	.	.	.	.	.	.	.
.	.	.	.	4f\	.	.	.	4dd\	ac
=116-	=116-	=116-	=116-	=116-	=116-	=116-	=116-	=116-	=116-
.	.	2r	.	2g\	.	2r	.	2ee\	po-
4B-\	po-	.	.	.	.	.	.	.	.
4A\	.	1c\	ac	2a\	ac	2cc\	ac	1ff\	-ſte-
4G\	.	.	.	.	.	.	.	.	.
=117-	=117-	=117-	=117-	=117-	=117-	=117-	=117-	=117-	=117-
2F/	.	.	.	2a\	po-	2a\	po-	.	.
2E/	-ſte-	2c\	po-	4g\	-ſte-	1cc\	-ſte-	2gg\	-ri-
.	.	.	.	4e\	.	.	.	.	.
=118-	=118-	=118-	=118-	=118-	=118-	=118-	=118-	=118-	=118-
2F/	.	2.d\	-ſte-	2a\	.	.	.	2ff\	.
!	!	!	!	!	!	!LO:N:acc=#	!	!	!
2G\	-ri-	.	.	2g\	-ri-	2bn\	-ri-	2dd\	.
.	.	4d\	-ri-	.	.	.	.	.	.
=119-	=119-	=119-	=119-	=119-	=119-	=119-	=119-	=119-	=119-
1C	-us	0c	-us	2g\	-us	1cc	-us	1ee	-us
.	.	.	.	1g\	Ga-	.	.	.	.
*	*Xij	*	*	*	*	*	*Xij	*	*Xij
=120-	=120-	=120-	=120-	=120-	=120-	=120-	=120-	=120-	=120-
2r	.	.	.	.	.	2r	.	2r	.
1c\	Ga-	.	.	2g\	-brie-	1cc\	Ga-	1gg\	Ga
=121-	=121-	=121-	=121-	=121-	=121-	=121-	=121-	=121-	=121-
.	.	1r	.	2.e\	.	.	.	.	.
2c\	-brie-	.	.	.	.	2cc\	-brie-	2gg\	bri-
.	.	.	.	4f\	.	.	.	.	.
=122-	=122-	=122-	=122-	=122-	=122-	=122-	=122-	=122-	=122-
1c	-lis	2r	.	1g	-lis	2.cc\	.	1ee	-e-
.	.	1c\	Ga-	.	.	.	.	.	.
.	.	.	.	.	.	4b-y\	.	.	.
=123-	=123-	=123-	=123-	=123-	=123-	=123-	=123-	=123-	=123-
1F	ab	.	.	2f\	Ga-	4a\	.	2ff\	-lis
.	.	.	.	.	.	4g\	.	.	.
.	.	2c\	-bri-	1f\	-brie-	2a\	.	1cc\	Ga-
=124-	=124-	=124-	=124-	=124-	=124-	=124-	=124-	=124-	=124-
*	*	*	*	*	*	*lig	*	*	*
1C	o-	1c	-e-	.	.	1g	-lis	.	.
.	.	.	.	2e\	.	.	.	2cc\	-bri
=125-	=125-	=125-	=125-	=125-	=125-	=125-	=125-	=125-	=125-
2.F/	.	1.A	-lis	1f	.	1c	.	2cc\	e-
.	.	.	.	.	.	.	.	1a/	-lis
4E/	.	.	.	.	.	.	.	.	.
*	*	*	*	*	*	*Xlig	*	*	*
=126-	=126-	=126-	=126-	=126-	=126-	=126-	=126-	=126-	=126-
2D/	.	.	.	2F/	-lis	2d/	ab	.	.
2BB-/	.	2B-\	ab	2F/	ab	1g\	o-	2dd\	ab
=127-	=127-	=127-	=127-	=127-	=127-	=127-	=127-	=127-	=127-
0C	re	0G	o-	1c	o-	.	.	0cc	o-
.	.	.	.	.	.	4e/	.	.	.
.	.	.	.	.	.	4d/	.	.	.
=128-	=128-	=128-	=128-	=128-	=128-	=128-	=128-	=128-	=128-
.	.	.	.	1c	-re	1e	-re	.	.
*	*	*	*	*custos:F	*	*	*	*	*
!	!	!	!	!LO:LB:g=original	!	!	!	!	!
=129-	=129-	=129-	=129-	=129-	=129-	=129-	=129-	=129-	=129-
2r	.	1F	-re	2r	.	2f\	Su-	1a	-re
1F\	Su-	.	.	2F/	Su-	1a\	.	.	.
=130-	=130-	=130-	=130-	=130-	=130-	=130-	=130-	=130-	=130-
*	*	*	*	*lig	*	*	*	*	*
.	.	1r	.	0c	-mens	.	.	1r	.
4E/	.	.	.	.	.	4g\	.	.	.
4D/	.	.	.	.	.	4f\	.	.	.
=131-	=131-	=131-	=131-	=131-	=131-	=131-	=131-	=131-	=131-
2E/	.	00r	.	.	.	2g\	.	00r	.
2F/	.	.	.	.	.	2a\	.	.	.
=132-	=132-	=132-	=132-	=132-	=132-	=132-	=132-	=132-	=132-
2D/	-mens	.	.	0d	.	2f\	-mẽ(n)s	.	.
*custos:G	*	*	*	*	*	*	*ij	*	*
!LO:LB:g=original	!	!	!	!	!	!	!	!	!
1G\	Su-	.	.	.	.	1b-\	ab	.	.
*	*	*	*	*Xlig	*ij	*	*	*	*
=133-	=133-	=133-	=133-	=133-	=133-	=133-	=133-	=133-	=133-
.	.	.	.	.	.	.	.	.	.
4F#X/	.	.	.	.	.	4a\	o-	.	.
4E/	.	.	.	.	.	4g\	.	.	.
=134-	=134-	=134-	=134-	=134-	=134-	=134-	=134-	=134-	=134-
2F#X/	.	.	.	1d	Su-	2a\	.	.	.
2G\	.	.	.	.	.	2b-\	re	.	.
*	*	*	*	*	*	*custos:g	*	*	*
!	!	!	!	!	!	!LO:LB:g=original	!	!	!
=135-	=135-	=135-	=135-	=135-	=135-	=135-	=135-	=135-	=135-
1C	mens	2r	.	1e	-mens	1g	Su-	2r	.
.	.	1c\	Su-	.	.	.	.	1ee\	Su-
=136-	=136-	=136-	=136-	=136-	=136-	=136-	=136-	=136-	=136-
*	*	*	*	*	*Xij	*lig	*	*	*
2r	.	.	.	1r	.	0g	-mẽ(n)s	.	.
!	!	!LO:N:acc=#	!	!	!	!	!	!	!
1G\	Su-	4Bn\	.	.	.	.	.	4dd\	.
.	.	4A/	.	.	.	.	.	4cc\	.
*	*	*custos:B	*	*	*	*	*	*	*
!	!	!LO:LB:g=original	!	!	!	!	!	!	!
=137-	=137-	=137-	=137-	=137-	=137-	=137-	=137-	=137-	=137-
!	!	!LO:N:acc=#	!	!	!	!	!	!	!
.	.	2Bn\	.	00r	.	.	.	2dd\	.
2C/	.	2c\	.	.	.	.	.	2ee\	.
=138-	=138-	=138-	=138-	=138-	=138-	=138-	=138-	=138-	=138-
4Fny/	.	2A/	-mẽ(n)s	.	.	0.a	.	2cc\	-mẽ(n)s
4E/	.	.	.	.	.	.	.	.	.
*	*	*	*ij	*	*	*	*Xij	*	*ij
4D/	.	1d\	Su-	.	.	.	.	1ff\	Su-
4E/	.	.	.	.	.	.	.	.	.
*	*	*	*	*	*	*Xlig	*	*	*
=139-	=139-	=139-	=139-	=139-	=139-	=139-	=139-	=139-	=139-
4F/	.	.	.	.	.	.	.	.	.
4G\	.	.	.	.	.	.	.	.	.
1A\	.	4c#X\	.	.	.	.	.	4ee\	.
!	!	!LO:N:acc=#	!	!	!	!	!	!ee	!
.	.	4Bn\	.	.	.	.	.	4dd\	.
*	*	*	*	*	*	*	*	*custos:ee	*
!	!	!	!	!	!	!	!	!LO:LB:g=original	!
=140-	=140-	=140-	=140-	=140-	=140-	=140-	=140-	=140-	=140-
.	.	2c#X\	.	.	.	.	.	2ee\	.
2D/	-mens	2d\	.	.	.	.	.	2ff\	.
=141-	=141-	=141-	=141-	=141-	=141-	=141-	=141-	=141-	=141-
2r	.	2G/	-mens	2r	.	2b-\	Su-	2dd\	-mẽ(n)s
*	*	*	*Xij	*	*	*	*	*	*Xij
!	!	!LO:N:acc=#	!	!	!	!	!	!	!
1G\	il-	1Bn\	il-	1d\	il-	1g\	-mẽ(n)s	1dd\	il-
=142-	=142-	=142-	=142-	=142-	=142-	=142-	=142-	=142-	=142-
2C/	-lud	2cny\	-lud	2c/	lud	2g\	il-	2ee\	-lud
=143-	=143-	=143-	=143-	=143-	=143-	=143-	=143-	=143-	=143-
0F	a-	2.c\	a	2.A/	a-	0a	-lud	0ff	au-
.	.	4B-y\	.	4B-/	.	.	.	.	.
=144-	=144-	=144-	=144-	=144-	=144-	=144-	=144-	=144-	=144-
.	.	4A/	.	1c	.	.	.	.	.
.	.	4G/	.	.	.	.	.	.	.
.	.	2A/	.	.	.	.	.	.	.
=145-	=145-	=145-	=145-	=145-	=145-	=145-	=145-	=145-	=145-
2BB-/	ue	2B-\	ue	1d	-ue	2f\	aue	2dd\	-e
1B-\	Pec-	1d\	Pac-	.	.	1f\	Pec-	1b-y\	Pec-
=146-	=146-	=146-	=146-	=146-	=146-	=146-	=146-	=146-	=146-
.	.	.	.	1r	.	.	.	.	.
2A\	-ca-	1c\	-ca-	.	.	2f\	-ca-	2cc\	-ca-
=147-	=147-	=147-	=147-	=147-	=147-	=147-	=147-	=147-	=147-
1B-	-to-	.	.	00r	.	1f	-to-	1dd	-to-
.	.	1B-\	-to-	.	.	.	.	.	.
=148-	=148-	=148-	=148-	=148-	=148-	=148-	=148-	=148-	=148-
1F	-rum	.	.	.	.	1f	-rum	2cc\	-rum
.	.	2A/	-rum	.	.	.	.	2.dd\	mi-
*custos:G	*	*	*	*	*	*	*	*	*
!LO:LB:g=original	!	!	!	!	!	!	!	!	!
=149-	=149-	=149-	=149-	=149-	=149-	=149-	=149-	=149-	=149-
1.G	mi-	2.B-\	mi-	.	.	2.d/	mi-	.	.
.	.	.	.	.	.	.	.	4cc\	.
.	.	.	.	.	.	.	.	4b-/	.
.	.	4c\	.	.	.	8e/	.	4a/	.
.	.	.	.	.	.	8f\	.	.	.
*	*	*custos:d	*	*	*	*	*	*	*
!	!	!LO:LB:g=original	!	!	!	!	!	!	!
=150-	=150-	=150-	=150-	=150-	=150-	=150-	=150-	=150-	=150-
.	.	2d\	.	.	.	2g\	.	2b-/	.
2D/	-ſe-	2d\	-ſe-	.	.	2f\	-ſe-	1a/	-ſe-
=151-	=151-	=151-	=151-	=151-	=151-	=151-	=151-	=151-	=151-
1G	-re-	1B-	-re-	1r	.	2.d/	-re-	.	.
.	.	.	.	.	.	.	.	2g/	-re-
.	.	.	.	.	.	4e/	.	.	.
=152-	=152-	=152-	=152-	=152-	=152-	=152-	=152-	=152-	=152-
*	*	*	*	*	*	*lig	*	*	*
1F	-re	0c	-re	2r	.	1f	.	2.a/	.
.	.	.	.	1f\	Pec-	.	.	.	.
.	.	.	.	.	.	.	.	4b-/	.
=153-	=153-	=153-	=153-	=153-	=153-	=153-	=153-	=153-	=153-
1r	.	.	.	.	.	1g	.	1cc	-re
.	.	.	.	2e\	-ca-	.	.	.	.
*	*	*	*	*	*	*Xlig	*	*	*
=154-	=154-	=154-	=154-	=154-	=154-	=154-	=154-	=154-	=154-
1.D	Pec-	1r	.	2f\	-to-	0a	re	2r	.
.	.	.	.	2d\	-rum	.	.	1ff\	Pec-
=155-	=155-	=155-	=155-	=155-	=155-	=155-	=155-	=155-	=155-
.	.	1r	.	1A	mi-	.	.	.	.
2C#X/	-ca-	.	.	.	.	.	.	2ee\	-ca-
=156-	=156-	=156-	=156-	=156-	=156-	=156-	=156-	=156-	=156-
2.D/	-to-	2r	.	2A/	-ſe-	1r	.	1.ff	-to-
.	.	1B-\	Pec-	2d\	-re-	.	.	.	.
4E/	.	.	.	.	.	.	.	.	.
=157-	=157-	=157-	=157-	=157-	=157-	=157-	=157-	=157-	=157-
1F	.	.	.	1c	-re	2r	.	.	.
.	.	2A/	-ca-	.	.	2.f\	Pec-	2cc\	-rum
=158-	=158-	=158-	=158-	=158-	=158-	=158-	=158-	=158-	=158-
1BB-	-rum	1B-	-to-	2r	.	.	.	1.dd	mi-
.	.	.	.	.	.	4f\	-ca-	.	.
.	.	.	.	2.d\	mi-	2b-\	-to-	.	.
=159-	=159-	=159-	=159-	=159-	=159-	=159-	=159-	=159-	=159-
1D	mi-	2F/	-rum	.	.	2a\	-rũ(m)	.	.
.	.	.	.	4e\	.	.	.	.	.
.	.	1A\	mi-	1f\	.	1a\	mi-	2dd\	-ſe-
=160-	=160-	=160-	=160-	=160-	=160-	=160-	=160-	=160-	=160-
1F	-ſe-	.	.	.	.	.	.	0.cc	-re-
.	.	2A/	-ſe-	2c/	-ſe-	1f\	-ſe-	.	.
=161-	=161-	=161-	=161-	=161-	=161-	=161-	=161-	=161-	=161-
0Cny	-re-	0G	-re-	0c	-re-	.	.	.	.
.	.	.	.	.	.	4e/	-re-	.	.
.	.	.	.	.	.	4d/	.	.	.
=162-	=162-	=162-	=162-	=162-	=162-	=162-	=162-	=162-	=162-
.	.	.	.	.	.	1e	.	.	.
=163-	=163-	=163-	=163-	=163-	=163-	=163-	=163-	=163-	=163-
00F	-re.	00F	-re.	00c	-re.	00f	-re.	00a	-re.
==	==	==	==	==	==	==	==	==	==
*-	*-	*-	*-	*-	*-	*-	*-	*-	*-
!!!system-decoration: [(s1,s2,s3,s4,s5)]
!!!ENC: Marta Opryszak
!!!END: 2022-07-15
!!!ENC: Jan Barakat
!!!END: 2022-08-10
